X:1
T:Old 81st, CMD
T:Old 81st, CMD
T:Day’s Psalter, 1562
T:Public Domain Courtesy of the Cyber Hymnal™
C:Day’s Psalter, 1562
Z:Public Domain
Z:Courtesy of the Cyber Hymnal™
%%score ( 1 2 ) ( 3 4 )
L:1/8
Q:1/4=125
M:3/4
K:Eb
V:1 treble 
V:2 treble 
V:3 bass 
V:4 bass 
V:1
 [B,E]2 | [EG]4 [EA]2 | [DB]4 [EB]2 | [Ec]4 [Ec]2 | [EB]4 [EB]2 | [Ec]4 [Fd]2 | [Ge]4 [Fc]2 | %7
 [Fd]4 [EB]2 | [Ge]4 [Fd]2 | [Ec]4 [DB]2 | [CA]4 [EG]2 | [DB]4 [EG]2 | [Ec]4 [DB]2 | [EB]4 [C=A]2 | %14
 [DB]4 [EB]2 | [Ge]4 [Fd]2 | [Ec]4 [DB]2 | [CA]4 [EG]2 | [DF]4 [EG]2 | [EA]4 [DG]2 | [CG]4 [CF]2 | %21
 [DG]4 [EG]2 | [Ec]4 [DB]2 | [EA]4 [EG]2 | [CF]4 [A,E]2 | [B,D]4 [B,G]2 | [DF]4 E2 | [CE]4 [B,D]2 | %28
 [B,E]4 |] %29
V:2
 x2 | x6 | x6 | x6 | x6 | x6 | x6 | x6 | x6 | x6 | x6 | x6 | x6 | x6 | x6 | x6 | x6 | x6 | x6 | %19
 x6 | x6 | x6 | x6 | x6 | x6 | x6 | x4 E2 | x6 | x4 |] %29
V:3
 [E,G,]2 | [E,B,]4 [C,A,]2 | [B,,F,]4 [E,G,]2 | [A,,A,]4 [C,A,]2 | [E,G,]4 [E,G,]2 | %5
 [C,G,]4 [F,A,]2 | [E,B,]4 [F,=A,]2 | [B,,B,]4 [E,G,]2 | [E,B,]4 [G,,G,]2 | [C,G,]4 [G,,G,]2 | %10
 [A,,E,]4 [E,G,]2 | [B,,F,]4 [E,G,]2 | [A,,A,]4 [B,,F,]2 | [C,E,]4 F,2 | [B,,F,]4 [E,G,]2 | %15
 [E,B,]4 [B,,B,]2 | [C,G,]4 [G,,G,]2 | [A,,E,]4 [E,G,]2 | [B,,B,]4 [E,B,]2 | [C,A,]4 [B,,B,]2 | %20
 [A,,C]4 [A,,F,B,]2 | [G,,G,=B,]4 [E,_B,]2 | [A,,A,]4 [B,,F,]2 | [C,A,]4 [E,B,]2 | %24
 [A,,A,]4 [C,A,]2 | [B,,F,]4 E,2 | [B,,F,]4 [G,,B,]2 | [A,,A,]4 [B,,F,]2 | [E,,E,G,]4 |] %29
V:4
 x2 | x6 | x6 | x6 | x6 | x6 | x6 | x6 | x6 | x6 | x6 | x6 | x6 | x4 F,2 | x6 | x6 | x6 | x6 | x6 | %19
 x6 | x6 | x6 | x6 | x6 | x6 | x4 E,2 | x6 | x6 | x4 |] %29

